components/icon/svg/24/journey_capacity-indicator.svg

<?xml version="1.0" encoding="UTF-8"?>
<svg width="24px" height="24px" viewBox="0 0 24 24" version="1.1" xmlns="http://www.w3.org/2000/svg" xmlns:xlink="http://www.w3.org/1999/xlink">
    <!-- Generator: Sketch 64 (93537) - https://sketch.com -->
    <title>ic-db_journey_capacity-indicator_24</title>
    <desc>Created with Sketch.</desc>
    <g id="Symbols" stroke="none" stroke-width="1" fill="none" fill-rule="evenodd">
        <g id="24dp-Icon/Journey/Capacity-Indicator" fill="#282D37">
            <path d="M2,20.9688 C2,21.5312 2.4375,21.9688 3,21.9688 C3.5312,21.9688 4,21.5312 4,20.9688 L4,15.125 C4,15.0312 4.0312,15.0312 4.125,15.0312 L7.875,15.0312 C7.9375,15.0312 8,15.0625 8,15.125 L8,20.9688 C8,21.5312 8.4375,22 9,22 C9.5625,22 10,21.5312 10,20.9688 L10,15.125 C10,13.9688 9.0312,13.0312 7.875,13.0312 L4.125,13.0312 C2.9688,13.0312 2,13.9062 2,14.9688 L2,20.9688 Z M12,14.0312 C12,14.5625 12.4375,15.0312 13,15.0312 L13.8438,15.0312 C13.9375,15.0312 14,15.0938 14,15.125 L14,20.9688 C14,21.5312 14.4375,21.9688 14.9688,21.9688 C15.5625,21.9688 16,21.5312 16,20.9688 L16,15.125 C16,14 15.0312,13.0312 13.875,13.0312 L13,13.0312 C12.4375,13.0312 12,13.4688 12,14.0312 Z M18,14.0312 C18,14.5625 18.4688,15.0312 19,15.0312 L19.875,15.0312 C19.9375,15.0312 20,15.0938 20,15.125 L20,20.9688 C20,21.5312 20.4688,21.9688 21,21.9688 C21.5625,21.9688 22,21.5312 22,20.9688 L22,15.125 C22,14 21.0312,13.0312 19.9062,13.0312 L19,13.0312 C18.4688,13.0312 18,13.4688 18,14.0312 Z M3.75,9.25 C3.75,10.5 4.75,11.5312 6,11.5312 C7.2188,11.5312 8.25,10.5 8.25,9.25 C8.25,8.0312 7.2188,7 6,7 C4.75,7 3.75,8.0312 3.75,9.25 Z M10.0938,9.25 C10.0938,10.5 11.0938,11.5312 12.3438,11.5312 C13.5625,11.5312 14.5938,10.5 14.5938,9.25 C14.5938,8.0312 13.5625,7.0312 12.3438,7.0312 C11.0938,7.0312 10.0938,8.0312 10.0938,9.25 Z M16.5,9.25 C16.5,10.5 17.5,11.5312 18.75,11.5312 C19.9688,11.5312 20.9688,10.5 20.9688,9.25 C20.9688,8.0312 19.9688,7 18.75,7 C17.5,7 16.5,8.0312 16.5,9.25 Z" id="🎨-Color"></path>
        </g>
    </g>
</svg>

<svg width="24" height="24" xmlns="http://www.w3.org/2000/svg"><path d="M2 20.969c0 .562.438 1 1 1 .531 0 1-.438 1-1v-5.844c0-.094.031-.094.125-.094h3.75c.063 0 .125.031.125.094v5.844C8 21.53 8.438 22 9 22c.563 0 1-.469 1-1.031v-5.844c0-1.156-.969-2.094-2.125-2.094h-3.75C2.969 13.031 2 13.906 2 14.97v6zm10-6.938c0 .531.438 1 1 1h.844c.094 0 .156.063.156.094v5.844c0 .562.438 1 .969 1 .594 0 1.031-.438 1.031-1v-5.844c0-1.125-.969-2.094-2.125-2.094H13c-.563 0-1 .438-1 1zm6 0c0 .531.469 1 1 1h.875c.063 0 .125.063.125.094v5.844c0 .562.469 1 1 1 .563 0 1-.438 1-1v-5.844c0-1.125-.969-2.094-2.094-2.094H19c-.531 0-1 .438-1 1zM3.75 9.25c0 1.25 1 2.281 2.25 2.281 1.219 0 2.25-1.031 2.25-2.281C8.25 8.031 7.219 7 6 7a2.26 2.26 0 00-2.25 2.25zm6.344 0c0 1.25 1 2.281 2.25 2.281 1.219 0 2.25-1.031 2.25-2.281 0-1.219-1.031-2.219-2.25-2.219-1.25 0-2.25 1-2.25 2.219zm6.406 0c0 1.25 1 2.281 2.25 2.281 1.219 0 2.219-1.031 2.219-2.281 0-1.219-1-2.25-2.219-2.25a2.26 2.26 0 00-2.25 2.25z" fill="#282D37" fill-rule="evenodd"/></svg>
